X: 13970
T: Francie Brearton's
R: jig
M: 6/8
K: Gmajor
|:BGB d2g|ege dBA|(3BAG B dBG|ABA AGA|
(3BAG B d2g|(3eee e dBG|(3BBB e dBG|1 DFA G2 A:|2 AGF G2 f||
(3ggg g fed|gfe dBG|gfe agf|gdB ABG|
bag agf|gfe dBG|(3BBB e dBG|1 DFA GBd:|2 AGF Gdc||

